X:1
T:G Major Stephen Jenks, 1806
T:Elizabeth Singer Rowe, 1717 86. 86. (C. M.)
T:Tuneful Harp
T:Transcribed from The Hartford Collection, 1807.
%%score [ 1 2 3 4 ]
L:1/8
Q:1/4=80
M:2/4
K:C
V:1 treble nm="Tr." snm="Tr."
V:2 treble nm="C." snm="C."
V:3 treble-8 nm="T." snm="T."
V:4 bass nm="B." snm="B."
V:1
"^1. Be – fore   the     ro – sy        dawn   of    day,               To   thee,  my     God, I'll   sing;       A –  wake, my   soft   and  tune – ſul" c4 | %1
 ce ce | e2 de/d/ | c2 de/f/ | e4 | z2 z G | GE GE | Gc A2 | B4 | z2 G2 | Gc cB | c3 c/d/ | %12
 e2 cd/c/ | %13
"^1. lyre! A  –  wake, each charming string!    A–wake! and    let     thy   flo  –  wing   strain Glide through the midnight   air,          While" B3 G | %14
 ce ed | c2 G2 | E4 | z2 G2 | ce ce | c3 G | d>e dc | d3 c | ec ec | cG Gc | (c2 B2) | z2 G2 | %26
"^1. high  a  –  midst her   si  –  lent         orb,   The  sil      –     ver    moon                rolls  clear." ce ce | %27
 d3 c | A2 d2 | B3 G | cB/c/ d c/d/ | e>d c g/f/ | e4- | e4 |] %34
V:2
"^2. While all    the     glittering      star – ry    lamps          Are   ligh–ted       in    the    sky,      And  set   their   Ma–ker's   great – ness" E4 | %1
 G2 G2 | G2 G2 | E2 G2 | G4 | z2 z G | G2 G2 | GE A2 | G4 | z2 E2 | G2 G2 | G3 G | GE FG/A/ | %13
"^2. forth. To    thy    ad  –   mi – ring eye:       While watchful  an–gels   round  the        just    As   night – ly   guardians    wait,           In" G3 G | %14
 c2 BA | G2 G2 | G4 | z2 E2 | G2 GE | A3 G | A2 A^F | G3 E | G2 G2 | G2 G2 | G4 | z2 E2 | %26
"^2. lof  – ty     strains of  grate – ful      praise, Thy  spi   –  rit           e       –       –      le   – vate." G2 G2 | %27
 G3 E | A2 A2 | G3 E | G2 A2 | G/A/G/A/ GD | E4- | E4 |] %34
V:3
"^3. A  –   gain   the    sky   with    gol – den   beams         Thy   skill–ful   hands a–dorn,        And  paint, with cheerful   splen– dor" G4 | %1
 Gc Gc | c2 BA/G/ | A2 Bc/d/ | c4 | z2 z c | ec fe | e2 d2 | d4 | z2 C2 | EG GA | G3 E | Gc cB/c/ | %13
"^3. gay  The  fair   a   –  scen–ding morn.    And   as     the     gloo–my   night  re  –   turns,  Our  smi –ling    day    re  –  news        Thy" d3 c/d/ | %14
 eg gf | ec d2 | c4 | z2 c2 | ec ec | f3 e | d>c BA | G3 G | GE GE | ce ce | (e2 d2) | z2 c2 | %26
"^3. constant  goodness  still   my        soul  With be      –      ne  –  fits                    pur –sues.\n" eg eg | %27
 g3 e | a>g fe/f/ | d3 c | ed/e/ f e/f/ | g>af/d/ c/B/ | c4- | c4 |] %34
V:4
"^4. For  this    I'll     midnight     vows  to      thee,          With  ear  –  ly     incense bring;      And  ere   the       ro  – sy   dawn   of" C,4 | %1
 C,2 C,2 | C,2 G,2 | C2 G,2 | C,4 | z2 z C, | C,2 C,2 | C,2 D,2 | G,4 | z2 C,2 | C,2 C,2 | C,3 G, | %12
 C2 A,G,/E,/ | %13
"^4. day,  Thy  lof  –  ty      prai–ses  sing.        A – wake, my   soft   and   tune – ſul        lyre!   A– wake each  charming   string!         Be –" G,3 E, | %14
 C,2 E,F, | G,2 G,,2 | C,4 | z2 C,2 | C2 C2 | F,3 C, | D,2 D,2 | G,,3 C, | C,2 C,2 | C,2 C,2 | %24
 G,4 | z2 C,2 | %26
"^4. –fore  the   ro –  sy   dawn  of           day,    To   thee,     my          God,                   I'll     sing." C2 C2 | %27
 G,3 C, | D,2 D,2 | G,3 C, | C,2 F,2 | E,>A, G,G,, | C,4- | C,4 |] %34

